X: 59
T: Song Concerning the Ghost Dance
N: Derived from pawnee59.krn
O: Oklahoma, U.S.A.
N: from Pawnee Music by Frances Densmore, 1926
Z: transcribed to **kern format by David Huron, August 2000
C: Skidi and Chaui Bands, 1919
L: 1/16
M: 3/4
Q: 1/4=88
K: C clef=bass
%%linebreak <none>
E [I:setbarnb 1]| 
E8D4[M:4/4] | 
E E (C> A,)C4A,4A,3 A,[M:3/4] | 
E8D4 | 
E E (C> A,)(C4A,4) | 
(C A,) (E,> D,)(E,4D,4) | 
E, D, (C,> A,,)(C,4A,,4) | 
D, D, (C,> A,,) (C,2> A,,2) A,,3 A,, | 
A,,8A,3 A, | 
E4E4D4 | 
E2 C2(C4A,4)[M:2/4] | 
A,2 E,2 E,3 E, | 
E,4D,4[M:3/4] | 
E, E, (C,> A,,)(C,4A,,4) | 
D, C, (C,> A,,) (C,2> A,,2) A,,3 A,, | 
A,,4-A,7 :|]  



